azure-patterns/svg-databox-data.svg

<svg xmlns="http://www.w3.org/2000/svg" viewBox="0 0 171 164">
                                
                            
<path d="M83.4481 98.8628V95.6059V82.7928C83.4481 81.1644 82.0788 79.8359 80.4099 79.8359H67.5296C66.8877 79.8359 66.3742 79.6216 65.9891 79.2359C65.604 78.8503 65.39 78.336 65.39 77.6932C65.39 77.1361 65.604 76.6219 66.0747 76.0648L87.4705 54.6809C87.8557 54.2953 88.3264 54.1238 88.9255 54.081C84.2184 34.9684 67.6152 20.3982 47.2035 19.4554C20.7154 18.2555 -1.15116 40.1965 0.0470102 66.6799C1.1596 90.8921 21.4429 109.79 45.663 109.79H83.4909V109.662V98.8628H83.4481Z" fill="#45ADD2"></path>
<path d="M109.08 119.261V109.79H126.497C151.016 109.79 171 90.5921 171 67.0227C171 44.3961 152.386 25.8835 129.107 24.9835C120.378 9.55631 103.603 0 84.9887 0C72.6647 0 61.3249 4.24249 52.6382 11.4847C63.764 13.2417 74.0768 18.427 82.2073 26.612C91.7498 36.1683 97.27 48.6815 97.9118 62.0089L112.033 76.1077C112.418 76.4933 112.632 77.0076 112.632 77.6504C112.632 78.2503 112.418 78.7217 111.99 79.1503C111.562 79.5788 111.049 79.7931 110.493 79.7931H97.9974V108.291V108.419V122.518V135.245C97.9974 136.917 96.6281 138.288 94.9164 138.288H95.002H82.1217C81.5226 138.288 81.0519 138.502 80.624 138.931C80.1961 139.359 79.9821 139.874 79.9821 140.431C79.9821 141.073 80.1961 141.588 80.5812 141.973L102.063 163.4C102.448 163.786 102.961 164 103.603 164C104.245 164 104.759 163.786 105.144 163.4L126.54 142.016C126.967 141.459 127.224 140.945 127.224 140.388C127.224 139.745 127.01 139.231 126.625 138.845C126.24 138.459 125.726 138.245 125.085 138.245H112.204C110.535 138.245 109.166 136.917 109.166 135.288V122.475V119.261H109.08Z" fill="#2272B9"></path>
</svg>

<svg xmlns="http://www.w3.org/2000/svg" viewBox="0 0 171 164"><path d="M83.448 98.863v-16.07c0-1.629-1.37-2.957-3.038-2.957H67.53c-.642 0-1.156-.214-1.54-.6-.386-.386-.6-.9-.6-1.543 0-.557.214-1.071.685-1.628L87.47 54.68c.386-.386.856-.557 1.456-.6-4.708-19.113-21.31-33.683-41.723-34.626C20.715 18.255-1.15 40.197.047 66.68c1.113 24.212 21.396 43.11 45.616 43.11h37.828V98.862h-.043z" fill="#45ADD2"/><path d="M109.08 119.261v-9.471h17.417c24.519 0 44.503-19.198 44.503-42.767 0-22.627-18.614-41.14-41.893-42.04C120.378 9.556 103.603 0 84.989 0c-12.324 0-23.664 4.242-32.35 11.485a53.215 53.215 0 0 1 29.568 15.127c9.543 9.556 15.063 22.07 15.705 35.397l14.121 14.099c.385.385.599.9.599 1.542 0 .6-.214 1.072-.642 1.5-.428.429-.941.643-1.497.643H97.997v55.452c0 1.672-1.369 3.043-3.08 3.043h.085-12.88c-.6 0-1.07.214-1.498.643-.428.428-.642.943-.642 1.5 0 .642.214 1.157.6 1.542l21.481 21.427c.385.386.898.6 1.54.6s1.156-.214 1.541-.6l21.396-21.384c.427-.557.684-1.071.684-1.628 0-.643-.214-1.157-.599-1.543-.385-.386-.899-.6-1.54-.6h-12.881c-1.669 0-3.038-1.328-3.038-2.957v-16.027h-.086z" fill="#2272B9"/></svg>
